!!!!SEGMENT: pl-sa--143-a-iii-43--008_anonim--missa-gregoriano-canto-agnus-dei.krn
!!!cenid: 18xx:1293
!!!COM: Anonim
!!!COM-rismID: pe30004985
!!!CDT:
!!!CNT:
!!!OPR: Missa Gregoriano Canto
!!!OTL: Agnus Dei
!!!OMV: 008
!!!PDT: 1815
!!!AGN: Sacred; Mass
!!!SMS-siglum: PL-SA
!!!SMS-shelfmark: 143/A III 43
!!!SMS-shelfwork: 001-008 M
!!!SMS-variant:
!!!SMS-altvar:
!!!NIFC-rismSourceID: 1001035509
!!!NIFC-islandoraID:
!!!URL-pdf-islandora:
!!!URL-scan: https://bc.bdsandomierz.pl/dlibra/publication/1500/edition/1468/content @EN{Scan in the Sandomierz Diocese Digital Library} @PL{Skany w portalu Cyfrowa Biblioteka Diecezjalna w Sandomierzu}
!!!ONB-nifc: UWAGA: części Mszy: 1. Kyrie, 2. Et in terra, 3. Patrem,. 4. Et incarnatus, 5. Et resurrexit, 6. Sanctus, 7. Benedictus, 8. Agnus Dei
!!!AIN: 1 organ 2 soprn
!!!key: F
**kern	**kern	**kern	**text	**kern	**text
*part3	*part3	*part2	*part2	*part1	*part1
*staff4	*staff3	*staff2	*staff2	*staff1	*staff1
*I"Organo.	*I"Organo.	*I"Canto 2do.	*	*I"Canto_Primo.	*
*I'org	*I'org	*I'S 2	*	*I'S 1	*
*Iorgan	*Iorgan	*Isoprn	*	*Isoprn	*
*ICklav	*ICklav	*ICvox	*	*ICvox	*
*IGacmp	*IGacmp	*	*	*	*
*clefF4	*clefC1	*clefC1	*	*clefC1	*
*k[b-]	*k[b-]	*k[b-]	*	*k[b-]	*
*F:	*F:	*F:	*	*F:	*
*M2/2	*M2/2	*M2/2	*	*M2/2	*
*met(c|)	*met(c|)	*met(c|)	*	*met(c|)	*
=1	=1	=1	=1	=1	=1
*	*2\right	*2\right	*	*2\right	*
!LO:TX:t=P:problem=metrum obrócone	!LO:TX:t=P:problem=metrum obrócone	!LO:TX:t=P:problem=metrum obrócone	!	!LO:TX:t=P:problem=metrum obrócone	!
!	!LO:TX:b:i:t=Agnus Dei	!	!	!	!
4F\	2cc\	2a\	A-	2cc\	A-
4F\	.	.	.	.	.
4F\	2a\	2f/	-gnus	2a\	-gnus
4F\	.	.	.	.	.
=2	=2	=2	=2	=2	=2
4F\	4r	4r	.	4r	.
4F\	4cc\	4a\	De-	4cc\	De-
4F\	4cc\	4a\	-i	4cc\	-i
4F\	4cc\	4a\	qvi	4cc\	qvi
=3	=3	=3	=3	=3	=3
4rF	4cc\	4a\	tol-	4cc\	tol-
4B-\	4dd\	4b-\	.	4dd\	.
4G\	2dd\	2b-\	-lis	2dd\	-lis
4E\	.	.	.	.	.
=4	=4	=4	=4	=4	=4
4C/	4rb	4r	.	4r	.
4B-\	4ee\	4g/	pec-	4ee\	pec-
4B-\	4ee\	4g/	-ca-	4ee\	-ca-
4B-\	4ee\	4g/	-ta	4ee\	-ta
=5	=5	=5	=5	=5	=5
4rF	4gg\	2a\	mun-	4gg\	mun-
4A\	4ff\	.	.	4ff\	.
4F\	2ff\	2a\	-di	2ff\	-di
4C/	.	.	.	.	.
=6	=6	=6	=6	=6	=6
4F\	2ff\	2a\	mi-	2ff\	mi-
4F\	.	.	.	.	.
4F\	2cc\	2a\	-se-	2cc\	-se-
4F\	.	.	.	.	.
=7	=7	=7	=7	=7	=7
4F\	2dd\	2b-\	-re-	2dd\	-re-
4F\	.	.	.	.	.
4F\	2cc\	2a\	-re	2cc\	-re
4F\	.	.	.	.	.
!	!	!LO:LB:g=original	!	!	!
=8	=8	=8	=8	=8	=8
4B-\	4dd\	4b-\	mi-	4dd\	mi-
4A\	4cc\	4a\	-se-	4cc\	-se-
4G\	4b-\	4g\	-re-	4b-\	-re-
4F\	4a\	4f\	-re	4a\	-re
!LO:LB:g=original	!LO:LB:g=original	!	!	!	!
=9	=9	=9	=9	=9	=9
*2\right	*	*	*	*	*
2c\	2a/	2f/	no-	2a\	no-
2C/	2g/	2e/	-bis.	2g\	-bis
=10||	=10||	=10||	=10||	=10||	=10||
4rBB	2b-\	2g/	a-	2b-\	a-
4C/	.	.	.	.	.
4E/	2g\	2e/	-gnus	2g\	-gnus
4C/	.	.	.	.	.
!	!	!	!	!LO:LB:g=original	!
=11	=11	=11	=11	=11	=11
4r	2a\	2f/	De-	2a\	De-
4F\	.	.	.	.	.
4A\	2cc\	2a\	-j	2cc\	-i
4F\	.	.	.	.	.
=12	=12	=12	=12	=12	=12
4E\	2b-\	2g\	De-	2b-\	De-
4C\	.	.	.	.	.
4E\	4g\	4e/	-j	4g\	-i
4C\	4g\	4e/	qvi	4g\	qvi
=13	=13	=13	=13	=13	=13
4F\	2a\	2f/	tol-	2a\	tol-
4C\	.	.	.	.	.
4F\	2cc\	2a/	-lis	2cc\	-lis
4C\	.	.	.	.	.
=14	=14	=14	=14	=14	=14
2F\	4cc\	4a\	pec-	4cc\	pec-
.	4a\	4f\	.	4a\	.
2r	4dd\	4b-\	-ca-	4dd\	-ca-
.	4cc\	4a\	-ta	4cc\	-ta
=15	=15	=15	=15	=15	=15
4r	4cc\	4a\	mun-	4cc\	mun-
4G\	4b-\	4g\	.	4b-\	.
4E\	2b-\	2g\	-di	2b-\	-di
4C\	.	.	.	.	.
=16	=16	=16	=16	=16	=16
2C/	4b-\	4g/	pec-	4b-\	pec-
.	4g\	4e/	.	4g\	.
2rBB	4cc\	4a/	-ca-	4cc\	-ca-
.	4b-\	4g/	-ta	4b-\	-ta
=17	=17	=17	=17	=17	=17
4r	4b-\	4g/	mun-	4b-\	mun-
4F\	4a\	4f/	.	4a\	.
4C/	2a\	2f/	-di	2a\	-di
4FF/	.	.	.	.	.
!LO:LB:g=original	!LO:LB:g=original	!	!	!	!
=18	=18	=18	=18	=18	=18
4F\	4a\	4f/	mi-	4a\	mi-
4E\	4g\	4e/	-se-	4g\	-se-
4E\	4g\	4e/	-re-	4g\	-re-
4G\	4b-\	4g/	-re	4b-\	-re
!	!	!LO:LB:g=original	!	!	!
=19	=19	=19	=19	=19	=19
*	*	*	*	*	*ij
4G\	4b-\	4g/	mi-	4b-\	mi-
4F\	4a\	4f/	-se-	4a\	-se-
4F\	4a\	4f/	-re-	4a\	-re-
4A\	4cc\	4a/	-re	4cc\	-re
*	*	*	*	*	*Xij
=20	=20	=20	=20	=20	=20
4A\	4cc\	4a/	mi-	4cc\	mi-
4G\	4b-\	4g/	-se-	4b-\	-se-
4G\	4b-\	4g/	-re-	4b-\	-re-
4F\	4a\	4f/	-re	4a\	-re
!	!	!	!	!LO:LB:g=original	!
=21	=21	=21	=21	=21	=21
2c\	2a\	2f/	no-	2a\	no-
2C/	2g\	2e/	-bis	2g\	-bis.
=22||	=22||	=22||	=22||	=22||	=22||
2F\	2cc\	2a\	A-	2cc\	A-
2r	4a\	4f/	-gnus	4a\	-gnus
.	4f\	4f/	.	4f\	.
=23	=23	=23	=23	=23	=23
2B-\	2dd\	2b-\	De-	2dd\	De-
4G\	2dd\	2b-\	-j	2dd\	-i
4E\	.	.	.	.	.
=24	=24	=24	=24	=24	=24
2E\	2b-\	2g/	De-	2b-\	De-
2rBB	4g/	4g/	-i	4g/	-i
.	4e/	4e/	qvi	4e/	qvi
=25	=25	=25	=25	=25	=25
2A\	2cc\	2a\	tol-	2cc\	tol-
4A\	2cc\	2a\	-lis	2cc\	-lis
4F\	.	.	.	.	.
!LO:LB:g=original	!LO:LB:g=original	!	!	!	!
=26	=26	=26	=26	=26	=26
2F\	2a\	2f/	pec-	2a\	pec-
2r	4b-\	4g/	-ca-	4b-\	-ca-
.	4cc\	4a/	-ta	4cc\	-ta
=27	=27	=27	=27	=27	=27
4B-\	4dd\	4b-\	mun-	4dd\	mun-
4A\	4cc\	4a\	.	4cc\	.
2G\	2b-\	2g/	-di	2b-\	-di
=28	=28	=28	=28	=28	=28
2E\	2g\	2e/	pec-	2g\	pec-
2r	4a\	4f/	-ca-	4a\	-ca-
.	4b-\	4g/	-ta	4b-\	-ta
=29	=29	=29	=29	=29	=29
4A\	4cc\	4a\	mun-	4cc\	mun-
4G\	4b-\	4g\	.	4b-\	.
2F\	2a\	2f/	-di	2a\	-di
!	!	!LO:LB:g=original	!	!	!
=30	=30	=30	=30	=30	=30
4A\	4cc\	4a\	Do-	4cc\	Do-
4A\	4cc\	4a\	-na	4cc\	-na
4A\	4ff\	4a\	no-	4ff\	no-
4A\	4ee-X\	4cc\	-bis	4ee-X\	-bis
=31	=31	=31	=31	=31	=31
4B-\	4ee-X\	4cc\	pa-	4ee-X\	pa-
4B-\	4dd\	4b-\	-cem	4dd\	.
4B-\	2dd\	2b-\	.	2dd\	-cem
4B-\	.	.	.	.	.
=32	=32	=32	=32	=32	=32
4C/	4g\	4e/	do-	4g/	do-
4C/	4g\	4e/	-na	4g/	-na
4C/	4cc\	4a/	no-	4cc/	no-
4C/	4b-\	4g/	-bis	4b-/	-bis
=33	=33	=33	=33	=33	=33
4E\	4b-/	4g/	pa-	4b-\	pa-
4F\	4a/	4f/	.	4a\	.
2F;\	2a;/	2f/	-cem	2a\	-cem
==	==	==	==	==	==
*-	*-	*-	*-	*-	*-
!!!system-decoration: [(s1,s2)]{(s3,s4)}
!!!ENC: Andrzej Kubiczek
!!!END: 2020-12-08
!!!ENC: Marta Lawrence
!!!END: 2022-03-27
